icon-themes/breeze_svg/svtools/res/ed05.svg

<svg viewBox="0 0 11 11" xmlns="http://www.w3.org/2000/svg"><path d="m8 3v2h-2v1h2v2h1v-2h2v-1h-2v-2z" fill="#4d4d4d"/><path d="m1 1v9l5-4.5z" fill="#1d99f3"/></svg>

<svg xmlns="http://www.w3.org/2000/svg" viewBox="0 0 11 11">
    <path
       style="fill:#4d4d4d"
       d="M 8 3 L 8 5 L 6 5 L 6 6 L 8 6 L 8 8 L 9 8 L 9 6 L 11 6 L 11 5 L 9 5 L 9 3 L 8 3 z "
       />
    <path
       style="fill:#1d99f3"
       d="M 1 1 L 1 10 L 6 5.5 L 1 1 z "
       />
</svg>
